static/fa/svgs/regular/hand-back-fist.svg

<svg xmlns="http://www.w3.org/2000/svg" viewBox="0 0 448 512"><!--! Font Awesome Free 6.1.1 by @fontawesome - https://fontawesome.com License - https://fontawesome.com/license/free (Icons: CC BY 4.0, Fonts: SIL OFL 1.1, Code: MIT License) Copyright 2022 Fonticons, Inc.--><path d="M377.1 68.05C364.4 50.65 343.7 40 321.2 40h-13.53c-3.518 0-7.039.275-10.53.818C284.8 31.33 269.6 26 253.5 26H240c-3.977 0-7.904.37-11.75 1.084C216.7 10.71 197.6 0 176 0h-16c-35.3 0-64 28.65-64 64v49.71L63.04 143.3C43.3 160 32 184.6 32 210.9v78.97c0 32.1 17.11 61.65 44.65 77.12L112 386.9V488c0 13.3 10.7 24 23.1 24s24.9-10.7 24.9-24V358.1c-1.316-.654-2.775-.92-4.062-1.639l-55.78-31.34C87.72 318.2 80 304.6 80 289.9v-79c0-12.31 5.281-23.77 14.5-31.39L112 163.8V208c0 8.8 7.2 16 16 16s16-7.156 16-16V64c0-8.828 7.188-16 16-16h16c8.8 0 16 7.17 16 16v16c0 9.578 7.942 16.04 16.15 16.04 6.432 0 12.31-4.018 14.73-10.17C223.3 84.84 228.3 74 240 74h13.53c20.97 0 17.92 19.58 34.27 19.58 8.177 0 9.9-5.584 19.88-5.584h13.53c25.54 0 18.27 28.23 38.66 28.23.156 0 .313-.002.467-.008L375.4 116c12.7 0 24.6 11.7 24.6 26v130c0 36.15-19.54 67.32-48 83.69v132.3c0 13.31 10.7 24.01 23.1 24.01s24.9-10.7 24.9-24V379.9c30.1-27.1 48-66.3 48-107.9V142c0-39.9-31.2-72.56-70.9-73.95z"/></svg>

<svg xmlns="http://www.w3.org/2000/svg" viewBox="0 0 448 512"><!--! Font Awesome Free 6.1.1 by @fontawesome - https://fontawesome.com License - https://fontawesome.com/license/free (Icons: CC BY 4.0, Fonts: SIL OFL 1.1, Code: MIT License) Copyright 2022 Fonticons, Inc. --><path d="M377.1 68.05C364.4 50.65 343.7 40 321.2 40h-13.53c-3.518 0-7.039 .2754-10.53 .8184C284.8 31.33 269.6 26 253.5 26H240c-3.977 0-7.904 .3691-11.75 1.084C216.7 10.71 197.6 0 176 0H160C124.7 0 96 28.65 96 64v49.71L63.04 143.3C43.3 160 32 184.6 32 210.9v78.97c0 32.1 17.11 61.65 44.65 77.12L112 386.9v101.1C112 501.3 122.7 512 135.1 512S160 501.3 160 488v-129.9c-1.316-.6543-2.775-.9199-4.062-1.639l-55.78-31.34C87.72 318.2 80 304.6 80 289.9V210.9c0-12.31 5.281-23.77 14.5-31.39L112 163.8V208C112 216.8 119.2 224 128 224s16-7.156 16-16V64c0-8.828 7.188-16 16-16h16C184.8 48 192 55.17 192 64v16c0 9.578 7.942 16.04 16.15 16.04c6.432 0 12.31-4.018 14.73-10.17C223.3 84.84 228.3 74 240 74h13.53c20.97 0 17.92 19.58 34.27 19.58c8.177 0 9.9-5.584 19.88-5.584h13.53c25.54 0 18.27 28.23 38.66 28.23c.1562 0 .3125-.002 .4668-.0078L375.4 116C388.1 116 400 127.7 400 142V272c0 36.15-19.54 67.32-48 83.69v132.3C352 501.3 362.7 512 375.1 512S400 501.3 400 488v-108.1C430.1 352.8 448 313.6 448 272V142C448 102.1 416.8 69.44 377.1 68.05z"/></svg>
